X:1
T:Title
%%score { ( 1 4 ) | ( 2 3 ) }
L:1/8
Q:1/4=100
M:4/4
K:G
V:1 treble nm="Grand Piano"
V:4 treble 
V:2 treble 
V:3 treble 
V:1
 B2 B2 BA G2 | A2 G2 G4 | E>[DF] [EG]>[EA] [DB]2 [Dd]2 | [FA]4 G2 z2 | B2 B2 BA G2 | A2 G2 G4 | %6
w: A.~J.~Abbey * * * *||||||
 E>[DF] [EG]>[EA] [DB]2 [Dd]2 | [FA]4 G2 z2 | d2 d2 Bc d2 | e2 d2 d4 | B2 B2 z A B2 | %11
w: |||||
 [GB]2 [FA]2 [FA]4 | B2 B2 BA G2 | A2 G2 G4 | E>[DF] [EG]>[EA] [DB]2 [Dd]2 | [FA]4 G2 z2 | %16
w: |||||
 d2 d2 d2 z2 | [Ge]2 [Ge]2 [Ge]2 z2 | d>e d>^c d2 [DG]2 | [GB]4 [FA]2 [Fd][Fc] | %20
w: ||||
 B>c B>_B =B2 [=Fd]2 | [Ec]4 [DB]2 z2 | [G,CE]>[G,DF] [G,EG]>[EA] [DB]2 [Dd]2 | [FA]4 G2 z2 |] %24
w: ||||
V:2
 [G,DG]2 [G,DG]2 [DG][CD] [G,B,D]2 | [D,CD]2 [G,B,D]2 [G,B,D]4 | %2
 [C,C]>[C,G,] [C,G,]>[C,G,] [D,G,]2 [D,B,]2 | [D,C]4 [G,B,]2 z2 | %4
 [G,DG]2 [G,DG]2 [DG][CD] [G,B,D]2 | [D,CD]2 [G,B,D]2 [G,B,D]4 | %6
 [C,C]>[C,G,] [C,G,]>[C,G,] [D,G,]2 [D,B,]2 | [D,C]4 [G,B,]2 z2 | z4 [G,G]2 z2 | %9
 [G,CG]2 [G,B,G]2 [G,B,G]4 | [G,DG]2 [G,DG]2 G,-[G,C] [G,DG]2 | [D,D]2 [D,D]2 [D,D]4 | %12
 [G,DG]2 [G,DG]2 [DG][CD] [G,B,D]2 | [D,CD]2 [G,B,D]2 [G,B,D]4 | %14
 [C,C]>[C,G,] [C,G,]>[C,G,] [D,G,]2 [D,B,]2 | [D,C]4 [G,B,]2 z2 | [G,B,G]2 [G,B,G]2 [G,B,G]2 z2 | %17
 [C,C]2 [C,C]2 [C,C]2 z2 | [G,B,G]>[G,CG] [G,B,G]>[G,A,G] [G,B,G]2[K:bass] B,,2 | %19
 [D,D]4 [D,D]2 [D,D][D,D] | [G,DG]>[G,EG] [G,DG]>[G,^CG] [G,DG]2[K:bass] [B,,G,]2 | G,4 z4 | %22
 C,>C, C,>[C,G,] [D,G,]2 [D,B,]2 | [D,C]4 [G,B,]2 z2 |] %24
V:3
 z4 G,2 z2 | x8 | x8 | x8 | z4 G,2 z2 | x8 | x8 | x8 | [G,B,G]2 [G,B,G]2 z A, [G,B,G]2 | x8 | %10
 z4 .B,2 z2 | x8 | z4 G,2 z2 | x8 | x8 | x8 | x8 | x8 | x6[K:bass] x2 | x8 | x6[K:bass] x2 | %21
 C,2 E,2 G,2 z2 | x8 | x8 |] %24
V:4
 x8 | x8 | x8 | x8 | x8 | x8 | x8 | x8 | x8 | x8 | z4 G2 z2 | x8 | x8 | x8 | x8 | x8 | x8 | x8 | %18
 x8 | x8 | x8 | x8 | x8 | x8 |] %24

